X:999201
T:Piobaireachd His Fathers Lament as an aire                  
O:Kevin Fraser
Q:3/8=40
K:AMix
M:6/8
L:1/8
%%MIDI gracedivider 4
%%MIDI gchord
%%MIDI beatstring 
K:HP
 {g}e2d||: {gcd}c2B {g}A2{d}c| {gef}e2A {g}e3 | {g}f2e {gcd}c2f | {gef}e2A {g}e2{A}e |
       | {gcd}c2B {g}A2{d}c  | {gef}e2A {g}e3 | {g}f2e {g}c2e   | {gBd}B3 {G}A3   :||
       ||: {g}f2e {gcd}c2f   | {gef}e2A {g}e3 | {gcd}c2B {g}A2{d}c| {gef}e2A {g}e3 |
       |   {g}f2e {gcd}c2f   | {gef}e2A {g}e3 | {g}f2e {g}c2e   | {gBd}B3 {G}A3   :||


